dist/svgs/unicons/line/document-layout-left.svg

<svg xmlns="http://www.w3.org/2000/svg" viewBox="0 0 24 24"><path d="M3 12h6a1 1 0 001-1V5a1 1 0 00-1-1H3a1 1 0 00-1 1v6a1 1 0 001 1zm1-6h4v4H4zm9 2h8a1 1 0 000-2h-8a1 1 0 000 2zm0 10H3a1 1 0 000 2h10a1 1 0 000-2zm8-4H3a1 1 0 000 2h18a1 1 0 000-2zm0-4h-8a1 1 0 000 2h8a1 1 0 000-2z"/></svg>

<svg xmlns="http://www.w3.org/2000/svg" viewBox="0 0 24 24"><path d="M3,12H9a1,1,0,0,0,1-1V5A1,1,0,0,0,9,4H3A1,1,0,0,0,2,5v6A1,1,0,0,0,3,12ZM4,6H8v4H4Zm9,2h8a1,1,0,0,0,0-2H13a1,1,0,0,0,0,2Zm0,10H3a1,1,0,0,0,0,2H13a1,1,0,0,0,0-2Zm8-4H3a1,1,0,0,0,0,2H21a1,1,0,0,0,0-2Zm0-4H13a1,1,0,0,0,0,2h8a1,1,0,0,0,0-2Z"/></svg>
